X:1
T:The Bunch of Fives
T:The Bunch of Fives
T:Colin Hume
C:Colin Hume
L:1/8
M:6/8
K:G
V:1 treble 
V:1
 D^CD | d2 D c2 D B2 AGAB c2 E B2 E A2 FD^CD | E2 G cBc d2 B G2 B A2 E F2 G A2 FD^CD | %3
 d2 D c2 D B2 AGAB c2 E B2 E A2 FD^CD | E2 G cBc d2 B G2 B A2 EFGA G3 GA^A | %5
 BcB AGFEGBeE^DDFAd^c=c B3 BBc | ^c=c^c edcdcd f2 =f e2 f^gfe g3 ABc | %7
 d2 D ^c2 D B2 D A2 DGABAGF E3 EFG | AFD BGE^cAFdBGe^deABc d3 || %9

